icons/mini/circle-stack.svg

<svg width="20" height="20" viewBox="0 0 20 20" fill="none" xmlns="http://www.w3.org/2000/svg">
<path fill-rule="evenodd" clip-rule="evenodd" d="M10 1C13.866 1 17 2.79086 17 5C17 7.20914 13.866 9 10 9C6.13401 9 3 7.20914 3 5C3 2.79086 6.13401 1 10 1ZM15.694 9.13079C16.1576 8.86588 16.6044 8.54736 17 8.17775V10C17 12.2091 13.866 14 10 14C6.13401 14 3 12.2091 3 10V8.17775C3.3956 8.54736 3.84244 8.86588 4.30604 9.13079C5.83803 10.0062 7.85433 10.5 10 10.5C12.1457 10.5 14.162 10.0062 15.694 9.13079ZM3 13.1777V15C3 17.2091 6.13401 19 10 19C13.866 19 17 17.2091 17 15V13.1777C16.6044 13.5474 16.1576 13.8659 15.694 14.1308C14.162 15.0062 12.1457 15.5 10 15.5C7.85433 15.5 5.83803 15.0062 4.30604 14.1308C3.84244 13.8659 3.3956 13.5474 3 13.1777Z" fill="#0F172A"/>
</svg>

<svg xmlns="http://www.w3.org/2000/svg" viewBox="0 0 20 20" fill="currentColor" aria-hidden="true" data-slot="icon">
  <path fill-rule="evenodd" d="M10 1c3.866 0 7 1.79 7 4s-3.134 4-7 4-7-1.79-7-4 3.134-4 7-4Zm5.694 8.13c.464-.264.91-.583 1.306-.952V10c0 2.21-3.134 4-7 4s-7-1.79-7-4V8.178c.396.37.842.688 1.306.953C5.838 10.006 7.854 10.5 10 10.5s4.162-.494 5.694-1.37ZM3 13.179V15c0 2.21 3.134 4 7 4s7-1.79 7-4v-1.822c-.396.37-.842.688-1.306.953-1.532.875-3.548 1.369-5.694 1.369s-4.162-.494-5.694-1.37A7.009 7.009 0 0 1 3 13.179Z" clip-rule="evenodd"/>
</svg>
